X: 2003
T: PERTHSHIRE VOLUNTEERS
R: Strathspey.
%R: strathspey
B: James Kerr "Merry Melodies" v.2 p.3 #3
Z: 2016 John Chambers <jc:trillian.mit.edu>
M: C
L: 1/16
K: A
[|\
vE3vA (cde2) c4 uA3uc | vd3uB dcBA GB3 B3ud |\
vc3vA (cde2) c4 uA3uc | vdB3e3ud vcA3A3ue |\
vE3vA (cde2) c4 uA3uc | vd3uB dcBA GB3 B3ud |
vc3vA (cde2) c4 uA3uc | vdB3e3ud vcA3A3ue |\
va3ue agfe a4 ue3uc | vd3uB dcBA GB3 B3ug |\
va3ue agfe a4 ue3uc |
vd3uB dcBA EA3A3ud |\
vc3veuG3ue vF3vduE3uc | vd3uB dcBA GB3 B3ud |\
ce3 df3 ea3 gb3 | agfe a3e cA3 A3c |]
